X:3769
L:1/8
M:6/8
K:D
 A | Add dfd | cde a2 (f/d/) | BBB BcA | (d3 d2) A | Add dfd | cde a2 (f/d/) | .B.B.B (Bc).A | 
 (d3 d) :: Aaa aba | agf Tg2 f | efg (g/a/b)d | (Td3 c2) A | Bcd g2 (e/d/) | cde a2 (f/d/) | 
 .B.B.B (Bc).A |{A} d3- d2 :|

